icons/pin.svg

<?xml version="1.0" standalone="no"?><!-- Generator: Gravit.io --><svg xmlns="http://www.w3.org/2000/svg" xmlns:xlink="http://www.w3.org/1999/xlink" width="96" height="96"><path d=" M 65.42185604417988 17.85022189446228 L 78.14977810553773 30.57814395582014 C 79.56399166791083 31.99235751819323 80.34180912721602 33.90154582739691 80.34180912721602 35.88144481471924 C 80.34180912721604 37.861343802041574 79.56399166791083 39.77053211124525 78.22048878365638 41.11403499549969 Q 78.14977810553773 41.18474567361835 77.44267132435118 41.8918524548049 C 75.46277233702885 43.4474873734153 73.55358402782517 45.07383297014436 71.7858170748588 46.84159992311073 L 60.472108575874046 58.15530842209549 C 59.411448404094216 59.21596859387532 58.84576297914498 60.630182156248395 58.845762979144986 62.18581707485882 Q 59.10213234699973 64.53624168325345 58.84576297914498 66.00419369326616 Q 58.67750828386316 66.96760761513912 58.13865619795843 68.40835674930042 C 57.855813485483814 69.39830624296158 57.219417382415934 70.17612370226679 56.30017856687342 70.67109844909737 C 53.8253048327205 72.15602268958912 50.93323809766749 71.24385494185844 48.87555736441467 69.18617420860562 L 43.5015458273969 63.812162671587856 C 43.28941379304094 63.600030637231896 43.00657108056632 63.60003063723191 42.79443904621036 63.81216267158787 L 24.268241379122813 78.23714100779344 C 23.419713241698943 79.36851185769191 22.146921035563174 80.07561863887847 20.661996795071424 80.28775067323443 C 19.318493910816976 80.49988270759039 17.90428034844389 80.07561863887847 16.77290949854541 79.2270905014546 C 15.924381361121561 78.09571965155612 15.500117292409612 76.68150608918305 15.71224932676559 75.3380032049286 C 15.924381361121554 73.85307896443685 16.631488142308093 72.58028675830107 17.76285899220657 71.7317586208772 L 32.187837328412144 53.20556095378966 C 32.399969362768104 52.9934289194337 32.399969362768104 52.71058620695908 32.187837328412144 52.498454172603104 L 26.813825791394382 47.124442635585346 C 24.77735826157711 45.08797510576809 23.84397731041088 42.174695167279516 25.328901550902636 39.6998214331266 C 25.823876297733218 38.78058261758409 26.601693757038415 38.14418651451619 27.591643250699576 37.861343802041574 Q 29.0323923848609 37.32249171613685 29.995806306733837 37.154237020855035 Q 31.46375831674656 36.89786765300029 33.814182925141196 37.154237020855035 C 35.369817843751605 37.15423702085502 36.7840314061247 36.58855159590579 37.84469157790452 35.52789142412597 L 49.15840007688928 24.21418292514121 C 50.92616702985565 22.44641597217484 52.55251262658471 20.537227662971162 54.10814754519511 18.557328675648826 Q 54.81525432638166 17.85022189446228 54.885965004500314 17.77951121634363 C 56.229467888754755 16.436008332089187 58.13865619795843 15.658190872783983 60.11855518528077 15.658190872783983 C 62.0984541726031 15.658190872783983 64.00764248180678 16.436008332089184 65.42185604417988 17.85022189446228 Z  M 50.996877707974306 59.993786053180514 L 49.15840007688928 58.15530842209549 C 46.61281566461771 55.60972400982392 42.79443904621035 54.90261722863738 39.54174785275224 56.45825214724778 C 41.09738277136263 53.20556095378964 40.39027599017609 49.3871843353823 37.84469157790452 46.841599923110735 L 36.0062139468195 45.00312229202571 C 38.834641071565684 44.57885822331378 41.45093616195591 43.23535533905934 43.501545827396896 41.18474567361835 L 54.81525432638166 29.871037174633585 Q 56.72444263558533 27.961848865429914 60.11855518528077 23.860629534547932 L 72.13937046545207 35.88144481471924 C 70.01805012189243 37.578501089566956 68.0381511345701 39.27555736441467 66.12896282536641 41.184745673618345 L 54.81525432638166 52.498454172603104 C 52.764644660940675 54.54906383804409 51.421141776686234 57.16535892843433 50.996877707974306 59.993786053180514 Z  M 72.13937046545207 35.88144481471924" fill-rule="evenodd" fill="#454545" stroke="none"/><mask id="_mask_jFkaOI37XDwAv6HxDAR2qsbnv63XFtfK"><path d=" M 65.42185604417988 17.85022189446228 L 78.14977810553773 30.57814395582014 C 79.56399166791083 31.99235751819323 80.34180912721602 33.90154582739691 80.34180912721602 35.88144481471924 C 80.34180912721604 37.861343802041574 79.56399166791083 39.77053211124525 78.22048878365638 41.11403499549969 Q 78.14977810553773 41.18474567361835 77.44267132435118 41.8918524548049 C 75.46277233702885 43.4474873734153 73.55358402782517 45.07383297014436 71.7858170748588 46.84159992311073 L 60.472108575874046 58.15530842209549 C 59.411448404094216 59.21596859387532 58.84576297914498 60.630182156248395 58.845762979144986 62.18581707485882 Q 59.10213234699973 64.53624168325345 58.84576297914498 66.00419369326616 Q 58.67750828386316 66.96760761513912 58.13865619795843 68.40835674930042 C 57.855813485483814 69.39830624296158 57.219417382415934 70.17612370226679 56.30017856687342 70.67109844909737 C 53.8253048327205 72.15602268958912 50.93323809766749 71.24385494185844 48.87555736441467 69.18617420860562 L 43.5015458273969 63.812162671587856 C 43.28941379304094 63.600030637231896 43.00657108056632 63.60003063723191 42.79443904621036 63.81216267158787 L 24.268241379122813 78.23714100779344 C 23.419713241698943 79.36851185769191 22.146921035563174 80.07561863887847 20.661996795071424 80.28775067323443 C 19.318493910816976 80.49988270759039 17.90428034844389 80.07561863887847 16.77290949854541 79.2270905014546 C 15.924381361121561 78.09571965155612 15.500117292409612 76.68150608918305 15.71224932676559 75.3380032049286 C 15.924381361121554 73.85307896443685 16.631488142308093 72.58028675830107 17.76285899220657 71.7317586208772 L 32.187837328412144 53.20556095378966 C 32.399969362768104 52.9934289194337 32.399969362768104 52.71058620695908 32.187837328412144 52.498454172603104 L 26.813825791394382 47.124442635585346 C 24.77735826157711 45.08797510576809 23.84397731041088 42.174695167279516 25.328901550902636 39.6998214331266 C 25.823876297733218 38.78058261758409 26.601693757038415 38.14418651451619 27.591643250699576 37.861343802041574 Q 29.0323923848609 37.32249171613685 29.995806306733837 37.154237020855035 Q 31.46375831674656 36.89786765300029 33.814182925141196 37.154237020855035 C 35.369817843751605 37.15423702085502 36.7840314061247 36.58855159590579 37.84469157790452 35.52789142412597 L 49.15840007688928 24.21418292514121 C 50.92616702985565 22.44641597217484 52.55251262658471 20.537227662971162 54.10814754519511 18.557328675648826 Q 54.81525432638166 17.85022189446228 54.885965004500314 17.77951121634363 C 56.229467888754755 16.436008332089187 58.13865619795843 15.658190872783983 60.11855518528077 15.658190872783983 C 62.0984541726031 15.658190872783983 64.00764248180678 16.436008332089184 65.42185604417988 17.85022189446228 Z  M 50.996877707974306 59.993786053180514 L 49.15840007688928 58.15530842209549 C 46.61281566461771 55.60972400982392 42.79443904621035 54.90261722863738 39.54174785275224 56.45825214724778 C 41.09738277136263 53.20556095378964 40.39027599017609 49.3871843353823 37.84469157790452 46.841599923110735 L 36.0062139468195 45.00312229202571 C 38.834641071565684 44.57885822331378 41.45093616195591 43.23535533905934 43.501545827396896 41.18474567361835 L 54.81525432638166 29.871037174633585 Q 56.72444263558533 27.961848865429914 60.11855518528077 23.860629534547932 L 72.13937046545207 35.88144481471924 C 70.01805012189243 37.578501089566956 68.0381511345701 39.27555736441467 66.12896282536641 41.184745673618345 L 54.81525432638166 52.498454172603104 C 52.764644660940675 54.54906383804409 51.421141776686234 57.16535892843433 50.996877707974306 59.993786053180514 Z  M 72.13937046545207 35.88144481471924" fill-rule="evenodd" fill="white" stroke="none"/></mask><path d=" M 65.42185604417988 17.85022189446228 L 78.14977810553773 30.57814395582014 C 79.56399166791083 31.99235751819323 80.34180912721602 33.90154582739691 80.34180912721602 35.88144481471924 C 80.34180912721604 37.861343802041574 79.56399166791083 39.77053211124525 78.22048878365638 41.11403499549969 Q 78.14977810553773 41.18474567361835 77.44267132435118 41.8918524548049 C 75.46277233702885 43.4474873734153 73.55358402782517 45.07383297014436 71.7858170748588 46.84159992311073 L 60.472108575874046 58.15530842209549 C 59.411448404094216 59.21596859387532 58.84576297914498 60.630182156248395 58.845762979144986 62.18581707485882 Q 59.10213234699973 64.53624168325345 58.84576297914498 66.00419369326616 Q 58.67750828386316 66.96760761513912 58.13865619795843 68.40835674930042 C 57.855813485483814 69.39830624296158 57.219417382415934 70.17612370226679 56.30017856687342 70.67109844909737 C 53.8253048327205 72.15602268958912 50.93323809766749 71.24385494185844 48.87555736441467 69.18617420860562 L 43.5015458273969 63.812162671587856 C 43.28941379304094 63.600030637231896 43.00657108056632 63.60003063723191 42.79443904621036 63.81216267158787 L 24.268241379122813 78.23714100779344 C 23.419713241698943 79.36851185769191 22.146921035563174 80.07561863887847 20.661996795071424 80.28775067323443 C 19.318493910816976 80.49988270759039 17.90428034844389 80.07561863887847 16.77290949854541 79.2270905014546 C 15.924381361121561 78.09571965155612 15.500117292409612 76.68150608918305 15.71224932676559 75.3380032049286 C 15.924381361121554 73.85307896443685 16.631488142308093 72.58028675830107 17.76285899220657 71.7317586208772 L 32.187837328412144 53.20556095378966 C 32.399969362768104 52.9934289194337 32.399969362768104 52.71058620695908 32.187837328412144 52.498454172603104 L 26.813825791394382 47.124442635585346 C 24.77735826157711 45.08797510576809 23.84397731041088 42.174695167279516 25.328901550902636 39.6998214331266 C 25.823876297733218 38.78058261758409 26.601693757038415 38.14418651451619 27.591643250699576 37.861343802041574 Q 29.0323923848609 37.32249171613685 29.995806306733837 37.154237020855035 Q 31.46375831674656 36.89786765300029 33.814182925141196 37.154237020855035 C 35.369817843751605 37.15423702085502 36.7840314061247 36.58855159590579 37.84469157790452 35.52789142412597 L 49.15840007688928 24.21418292514121 C 50.92616702985565 22.44641597217484 52.55251262658471 20.537227662971162 54.10814754519511 18.557328675648826 Q 54.81525432638166 17.85022189446228 54.885965004500314 17.77951121634363 C 56.229467888754755 16.436008332089187 58.13865619795843 15.658190872783983 60.11855518528077 15.658190872783983 C 62.0984541726031 15.658190872783983 64.00764248180678 16.436008332089184 65.42185604417988 17.85022189446228 Z  M 50.996877707974306 59.993786053180514 L 49.15840007688928 58.15530842209549 C 46.61281566461771 55.60972400982392 42.79443904621035 54.90261722863738 39.54174785275224 56.45825214724778 C 41.09738277136263 53.20556095378964 40.39027599017609 49.3871843353823 37.84469157790452 46.841599923110735 L 36.0062139468195 45.00312229202571 C 38.834641071565684 44.57885822331378 41.45093616195591 43.23535533905934 43.501545827396896 41.18474567361835 L 54.81525432638166 29.871037174633585 Q 56.72444263558533 27.961848865429914 60.11855518528077 23.860629534547932 L 72.13937046545207 35.88144481471924 C 70.01805012189243 37.578501089566956 68.0381511345701 39.27555736441467 66.12896282536641 41.184745673618345 L 54.81525432638166 52.498454172603104 C 52.764644660940675 54.54906383804409 51.421141776686234 57.16535892843433 50.996877707974306 59.993786053180514 Z  M 72.13937046545207 35.88144481471924" fill-rule="evenodd" fill="none" stroke="none" stroke-width="16" mask="url(#_mask_jFkaOI37XDwAv6HxDAR2qsbnv63XFtfK)"/></svg>

<svg xmlns="http://www.w3.org/2000/svg" width="96" height="96"><path d="M65.422 17.85L78.15 30.578a7.493 7.493 0 0 1 2.192 5.303c0 1.98-.778 3.89-2.122 5.233l-.777.778c-1.98 1.555-3.89 3.182-5.657 4.95L60.472 58.155c-1.06 1.061-1.626 2.475-1.626 4.03q.256 2.351 0 3.82-.168.963-.707 2.403c-.283.99-.92 1.768-1.839 2.263-2.475 1.485-5.367.573-7.424-1.485l-5.374-5.374c-.213-.212-.495-.212-.708 0L24.268 78.237c-.848 1.132-2.121 1.839-3.606 2.05-1.344.213-2.758-.211-3.89-1.06-.848-1.131-1.272-2.545-1.06-3.889.212-1.485.92-2.758 2.05-3.606l14.426-18.526c.212-.213.212-.495 0-.708l-5.374-5.374c-2.037-2.036-2.97-4.95-1.485-7.424.495-.92 1.273-1.556 2.263-1.839q1.44-.539 2.404-.707 1.468-.256 3.818 0c1.556 0 2.97-.565 4.03-1.626l11.314-11.314c1.768-1.768 3.395-3.677 4.95-5.657l.778-.777c1.343-1.344 3.253-2.122 5.233-2.122 1.98 0 3.889.778 5.303 2.192zM50.997 59.994l-1.839-1.839c-2.545-2.545-6.364-3.252-9.616-1.697 1.555-3.252.848-7.07-1.697-9.616l-1.839-1.839c2.829-.424 5.445-1.768 7.496-3.818L54.815 29.87q1.91-1.91 5.304-6.01l12.02 12.02c-2.12 1.698-4.1 3.395-6.01 5.304L54.815 52.498c-2.05 2.051-3.394 4.667-3.818 7.496zM72.139 35.88" fill-rule="evenodd" fill="#454545"/></svg>
